packages/kaspersky-hexa-ui-icons/src/iconsSVGs/24/Hook.svg

<svg width="24" height="24" viewBox="0 0 24 24" fill="none" xmlns="http://www.w3.org/2000/svg">
<path fill-rule="evenodd" clip-rule="evenodd" d="M16 2C16.5523 2 17 2.44772 17 3V6.17071C18.1652 6.58254 19 7.69378 19 9C19 10.3062 18.1652 11.4175 17 11.8293V16C17 19.3137 14.3137 22 11 22C7.68629 22 5 19.3137 5 16V12C5 11.5955 5.24364 11.2309 5.61732 11.0761C5.99099 10.9213 6.42111 11.0069 6.70711 11.2929L9.70711 14.2929C10.0976 14.6834 10.0976 15.3166 9.70711 15.7071C9.31658 16.0976 8.68342 16.0976 8.29289 15.7071L7 14.4142V16C7 18.2091 8.79086 20 11 20C13.2091 20 15 18.2091 15 16V11.8293C13.8348 11.4175 13 10.3062 13 9C13 7.69378 13.8348 6.58254 15 6.17071V3C15 2.44772 15.4477 2 16 2ZM15 9C15 8.44772 15.4477 8 16 8C16.5523 8 17 8.44772 17 9C17 9.55228 16.5523 10 16 10C15.4477 10 15 9.55228 15 9Z" fill="black"/>
</svg>

<svg xmlns="http://www.w3.org/2000/svg" width="24" height="24" fill="none" viewBox="0 0 24 24"><path fill="#000" fill-rule="evenodd" d="M16 2c.5523 0 1 .4477 1 1v3.1707c1.1652.4118 2 1.523 2 2.8293s-.8348 2.4175-2 2.8293V16c0 3.3137-2.6863 6-6 6s-6-2.6863-6-6v-4a1 1 0 0 1 1.7071-.7071l3 3c.3905.3905.3905 1.0237 0 1.4142s-1.0237.3905-1.4142 0L7 14.4142V16c0 2.2091 1.7909 4 4 4s4-1.7909 4-4v-4.1707c-1.1652-.4118-2-1.5231-2-2.8293s.8348-2.4175 2-2.8293V3c0-.5523.4477-1 1-1m-1 7c0-.5523.4477-1 1-1s1 .4477 1 1-.4477 1-1 1-1-.4477-1-1"/></svg>
